X:1
T:Lux Benigna, 10.4.10.4.10.10
T:Lux Benigna, 10.4.10.4.10.10
T:John Bacchus Dykes, 1861
T:Public Domain Courtesy of the Cyber Hymnal™
C:John Bacchus Dykes, 1861
Z:Public Domain
Z:Courtesy of the Cyber Hymnal™
%%score ( 1 2 ) ( 3 4 )
L:1/8
Q:1/4=100
M:3/4
K:Ab
V:1 treble 
V:2 treble 
V:3 bass 
V:4 bass 
V:1
 E[EA] [EB] | [Ec]>[Cc] [DB][EA] [EF][DA] | ([DF]2 E4) x2 | [EA]2 [EG]2 A2 | [DB]3 | E[EA] [EB] | %6
 [Ec]>[Cc] [DB][EA] [EF][DA] | ([DF]2 [CE]4) x4 | [CE]2 [EA]3 [EG] | (G2 A4) | [EB]2 [=DB]2 [EB]2 | %11
 [FB]4 [EB]2 | [EB][Ec] (BA) (GF) | z2 x8 | [Cc]2 [DB]2 A2 | [FA]3 [FA] [EG][DF] | %16
 [CE]2 [EA]3 [DG] | ([DG]2 !fermata![CA]) |] %18
V:2
 E x2 | x6 | x2 E4 x2 | x4 (EC) | x3 | E x2 | x6 | x10 | x6 | E6 | x6 | x6 | x2 =D2 D2 | %13
 E6 (C2 D2) | x4 (E=E) | x6 | x6 | x3 |] %18
V:3
 [A,C][A,C] [A,D] | [A,C]>[A,,A,] [B,,A,][C,A,] [D,A,][F,A,] | (z2 [B,D]2) x4 | %3
 [CE]2 [B,D]2 (CA,) | (A,2 G,) | [E,D][F,D] [G,D] | [A,C]>[A,,A,] [B,,A,][C,A,] [D,A,][F,A,] | %7
 z2 x8 | [E,A,]2 [E,C]3 [E,B,] | ([E,D]2 [A,C]4) | [G,B,]2 [F,A,]2 (G,C) | (B,2 A,2) [E,G,]2 | %12
 [B,,G,][B,,G,] [B,,A,]2 [B,,A,]2 | (G,2 A,2 B,2) x4 | [A,,A,]2 (F,G,) [C,A,]2 | %15
 [D,A,]3 [D,F,] [D,G,][D,A,] | (A,2 C3) B, | ([E,B,]2 !fermata![A,,A,]) |] %18
V:4
 x3 | x6 | A,6 C2 | x4 A,2 | E,3 | x3 | x6 | A,6 (A,,2 C,2) | x6 | x6 | x4 E,2 | =D,4 x2 | x6 | %13
 E,6 x4 | x2 B,,2 x2 | x6 | E,4 x2 | x3 |] %18

